public/svg-assets/quill.svg

<svg width="58" height="168" viewBox="0 0 58 168" fill="none" xmlns="http://www.w3.org/2000/svg">
<path d="M45.1986 48.7798L58 41.1294C57.908 39.8451 57.7837 38.5838 57.641 37.3594C54.8146 12.3503 44.2872 0 44.2872 0C20.0653 16.0973 9.22478 47.0629 9.22478 47.0629L12.7692 58.9483L6.20509 55.9746C-5.14173 88.5605 6.95081 124.47 6.95081 124.47C7.90366 125.892 8.93938 126.887 9.99811 127.6C24.0148 65.4203 32.9864 42.9891 32.9864 42.9891C29.8194 51.063 21.4416 97.9648 16.1203 128.912C18.7533 128.534 20.7235 127.241 20.7235 127.241C60.1129 84.0126 56.6237 48.0157 56.6237 48.0157C53.871 46.4322 45.1986 48.7798 45.1986 48.7798Z" fill="black"/>
<path d="M9.9981 127.6C8.00032 136.438 2.19571 156.973 0 167.463L5.34889 161.268C5.34889 161.268 11.356 143.159 16.1203 128.912C14.2698 129.183 12.0925 128.985 9.9981 127.6Z" fill="black"/>
</svg>

<svg xmlns="http://www.w3.org/2000/svg" width="58" height="168" fill="none"><path fill="#000" d="M45.199 48.78 58 41.13a85 85 0 0 0-.359-3.77C54.815 12.35 44.287 0 44.287 0 20.065 16.097 9.225 47.063 9.225 47.063l3.544 11.885-6.564-2.973c-11.347 32.586.746 68.495.746 68.495.953 1.422 1.988 2.417 3.047 3.13 14.017-62.18 22.988-84.61 22.988-84.61-3.167 8.073-11.544 54.975-16.866 85.922 2.633-.378 4.604-1.671 4.604-1.671 39.389-43.228 35.9-79.225 35.9-79.225-2.753-1.584-11.425.764-11.425.764M9.998 127.6C8 136.438 2.196 156.973 0 167.463l5.349-6.195s6.007-18.109 10.771-32.356c-1.85.271-4.028.073-6.122-1.312"/></svg>
